X:1
T:Title
%%score { 1 | 2 }
L:1/8
M:3/2
K:F
V:1 treble nm="Grand Piano"
V:2 bass 
V:1
 z4 z2 [A,C]2 [A,CF]2 [CFA]2 | [CAc]6 [CFA]2 [B,EG]2 [B,EA]2 | [A,F]8 [C_EA]4 | %3
 [DB]6 [Fd]2 [Fc]2 [EB]2 | [GB]2 A4 C2 F2 A2 |[M:3/4] [Ac]6 | [FA]2 [FB]2 [Fc]2 | %7
[M:6/4] [Fd]6- [Fd]2 [Fd]4 | [Fc]6 [Fc]2 [EB]2 [EG]2 | G2 F4 [EG]2 [EG]2 [FA]2 | [GB]6 G2 A2 B2 | %11
 [Ac]6- [Ac]2 A4 | A6 G2 F2 A2 | A2 [EG]4 C2 F2 A2 | [Ac]6 [FA]2 [FB]2 [Fc]2 | [Fd]6- [Fd]2 [Fd]4 | %16
 [Fc]6 [Fc]2 [EB]2 [EG]2 |[M:3/4] G2 F4 |] %18
V:2
 z4 z2 F,2 F,2 F,2 | F,6 F,2 C,2 C,2 | F,8 F,4 | [B,,B,]6 [B,,B,]2 [C,A,]2 [C,C]2 | %4
 [F,C]2 [F,CF]4 [F,A,]2 [F,A,C]2 [F,CF]2 |[M:3/4] [F,C]6 | [_E,C]2 [D,B,]2 [C,A,]2 | %7
[M:6/4] [B,,B,]6- [B,,B,]2 [B,,B,]4 | [C,A,]6 [C,A,]2 [C,G,]2 [C,B,]2 | %9
 [F,B,E]2 [F,A,]4 [C,C]2 [C,C]2 [C,C]2 | [C,C]6[K:treble] [B,CE]2 [A,CF]2 [G,CG]2 | %11
 [F,C]6- [F,C]2 [F,CF]4 | [F,CF]6 [F,B,C]2 [F,A,C]2[K:treble] [F,CF]2 | %13
 [CF]2[K:bass] [C,C]4 [F,A,]2 [F,A,C]2 [F,CF]2 | [F,C]6 [_E,C]2 [D,B,]2 [C,A,]2 | %15
 [B,,B,]6- [B,,B,]2 [B,,B,]4 | [C,A,]6 [C,A,]2 [C,G,]2 [C,B,]2 |[M:3/4] [F,B,E]2 [F,A,]4 |] %18

